X:7
T: Rádái na scadán, S. 44
N: I0506
O: Irland
S: O BOYLE, Sean: 25 Irish Folksongs, Dublin 1976]
R: erzählendes Lied ]
M: 3/4
L: 1/8
K: C
GA | _B2A2c2 | _B4A2 | G4G2 | A4cc | c6- | c2z2
cc | d2c2_B2 | A4GA | G2F2D2 | DC3C2 | C6- | C2z2
GF | E2D2F2 | E4DC | D4F2 | GG3F2 | D6- | D2z2
EF | G2A2_B2 | _B2A2GA | G2F2D2 | DC3C2 | C6- | C2z2

